icons/SlidersRound.svg

<svg width="24" height="24" viewBox="0 0 24 24" fill="none" xmlns="http://www.w3.org/2000/svg">
<path fill-rule="evenodd" clip-rule="evenodd" d="M11.3535,6.5h-7.6035c-0.41421,0 -0.75,-0.33579 -0.75,-0.75c0,-0.41421 0.33579,-0.75 0.75,-0.75h7.6035c0.3265,-1.15425 1.3877,-2 2.6465,-2c1.2588,0 2.32,0.84575 2.6465,2h3.6035c0.4142,0 0.75,0.33579 0.75,0.75c0,0.41421 -0.3358,0.75 -0.75,0.75h-3.6035c-0.3265,1.15425 -1.3877,2 -2.6465,2c-1.2588,0 -2.32,-0.84575 -2.6465,-2zM15.25,5.75c0,-0.69036 -0.5596,-1.25 -1.25,-1.25c-0.6904,0 -1.25,0.55964 -1.25,1.25c0,0.69036 0.5596,1.25 1.25,1.25c0.6904,0 1.25,-0.55964 1.25,-1.25zM3,12c0,-0.4142 0.33579,-0.75 0.75,-0.75h1.35352c0.32646,-1.1543 1.3877,-2 2.64648,-2c1.25878,0 2.32,0.8457 2.6465,2h9.8535c0.4142,0 0.75,0.3358 0.75,0.75c0,0.4142 -0.3358,0.75 -0.75,0.75h-9.8535c-0.3265,1.1543 -1.38772,2 -2.6465,2c-1.25878,0 -2.32002,-0.8457 -2.64648,-2h-1.35352c-0.41421,0 -0.75,-0.3358 -0.75,-0.75zM9,12c0,-0.6904 -0.55964,-1.25 -1.25,-1.25c-0.69036,0 -1.25,0.5596 -1.25,1.25c0,0.6904 0.55964,1.25 1.25,1.25c0.69036,0 1.25,-0.5596 1.25,-1.25zM14.3535,17.5c0.3265,-1.1543 1.3877,-2 2.6465,-2c1.2588,0 2.32,0.8457 2.6465,2h0.6035c0.4142,0 0.75,0.3358 0.75,0.75c0,0.4142 -0.3358,0.75 -0.75,0.75h-0.6035c-0.3265,1.1543 -1.3877,2 -2.6465,2c-1.2588,0 -2.32,-0.8457 -2.6465,-2h-10.6035c-0.41421,0 -0.75,-0.3358 -0.75,-0.75c0,-0.4142 0.33579,-0.75 0.75,-0.75zM15.75,18.25c0,0.6904 0.5596,1.25 1.25,1.25c0.6904,0 1.25,-0.5596 1.25,-1.25c0,-0.6904 -0.5596,-1.25 -1.25,-1.25c-0.6904,0 -1.25,0.5596 -1.25,1.25z" fill="#002B51"/>
</svg>

<svg width="24" height="24" viewBox="0 0 24 24" fill="none" xmlns="http://www.w3.org/2000/svg">
<path fill-rule="evenodd" clip-rule="evenodd" d="M11.3535 6.5H3.75C3.33579 6.5 3 6.16421 3 5.75C3 5.33579 3.33579 5 3.75 5H11.3535C11.68 3.84575 12.7412 3 14 3C15.2588 3 16.32 3.84575 16.6465 5H20.25C20.6642 5 21 5.33579 21 5.75C21 6.16421 20.6642 6.5 20.25 6.5H16.6465C16.32 7.65425 15.2588 8.5 14 8.5C12.7412 8.5 11.68 7.65425 11.3535 6.5ZM15.25 5.75C15.25 5.05964 14.6904 4.5 14 4.5C13.3096 4.5 12.75 5.05964 12.75 5.75C12.75 6.44036 13.3096 7 14 7C14.6904 7 15.25 6.44036 15.25 5.75ZM3 12C3 11.5858 3.33579 11.25 3.75 11.25H5.10352C5.42998 10.0957 6.49122 9.25 7.75 9.25C9.00878 9.25 10.07 10.0957 10.3965 11.25H20.25C20.6642 11.25 21 11.5858 21 12C21 12.4142 20.6642 12.75 20.25 12.75H10.3965C10.07 13.9043 9.00878 14.75 7.75 14.75C6.49122 14.75 5.42998 13.9043 5.10352 12.75H3.75C3.33579 12.75 3 12.4142 3 12ZM7.75 13.25C7.05964 13.25 6.5 12.6904 6.5 12C6.5 11.3096 7.05964 10.75 7.75 10.75C8.44036 10.75 9 11.3096 9 12C9 12.6904 8.44036 13.25 7.75 13.25ZM3.75 17.5C3.33579 17.5 3 17.8358 3 18.25C3 18.6642 3.33579 19 3.75 19H14.3535C14.68 20.1543 15.7412 21 17 21C18.2588 21 19.32 20.1543 19.6465 19H20.25C20.6642 19 21 18.6642 21 18.25C21 17.8358 20.6642 17.5 20.25 17.5H19.6465C19.32 16.3457 18.2588 15.5 17 15.5C15.7412 15.5 14.68 16.3457 14.3535 17.5H3.75ZM15.75 18.25C15.75 18.9404 16.3096 19.5 17 19.5C17.6904 19.5 18.25 18.9404 18.25 18.25C18.25 17.5596 17.6904 17 17 17C16.3096 17 15.75 17.5596 15.75 18.25Z" fill="#002B51"/>
</svg>
